X:1
T:Title
%%score ( 1 2 ) { 3 | 4 }
L:1/8
Q:1/4=115
M:2/2
K:Ab
V:1 treble nm="Grand Piano, Soprano"
V:2 treble 
V:3 bass nm="Choir Pad, Rapid City, Hart P. Danks"
V:4 bass 
V:1
 [CE]2 [CA]2 [Ec]2 [EA]2 | [FA]4 .[DF]4 | [DF]2 [FA]2 [EG]2 [DF]2 | .[CE]8 | %4
w: By~Hart~Pease~Danks,~1881 * * *||||
 [EA]2 [EB]2 [Ec]2 [F=d]2 | [Ee]4 .[EB]4 | [EB]2 [EA]2 [EG]2 [=DF]2 | .E8 | E2 [EF]2 [EG]2 [EA]2 | %9
w: |||||
 [EB]4 [EG]4 | [EA]2 Bc [Ed]2 [Ec]2 | c4 .B4 | [EA]2 [EA]2 [EG]2 [DF]2 | [CE]4 [CA]4 | %14
w: |||||
 [FB]2 [Fc]2 [Fd]2 G-[DG] | [CA]8 |] %16
w: ||
V:2
 x8 | x8 | x8 | x8 | x8 | x8 | x8 | x8 | x8 | x8 | z2 E2 z4 | .E8 | x8 | x8 | z4 z2 .E2 | x8 |] %16
V:3
 A,2 A,2 A,2 A,2 | A,4 .A,4 | A,2 A,2 A,2 A,2 | .A,8 | A,2 G,2 A,2 B,2 | B,4 .B,4 | %6
 B,2 C2 B,2 A,2 | .G,8 | G,2 A,2 B,2 C2 | D4 B,4 | A,2 G,A, B,2 A,2 | A,4 .G,4 | A,2 A,2 A,2 A,2 | %13
 A,4 A,4 | A,2 =A,2 B,2 B,2 | A,8 |] %16
V:4
 A,,2 A,,2 A,,2 C,2 | D,4 .D,4 | D,2 D,2 D,2 D,2 | .A,,8 | C,2 E,2 z2 A,2 | G,4 .G,4 | %6
 G,2 A,2 z2 B,,2 | .E,8 | E,2 E,2 E,2 E,2 | E,4 E,2 D,2 | C,2 B,,A,, G,,2 A,,2 | .E,8 | %12
 C,2 C,2 D,2 D,2 | A,,4 F,4 | D,2 C,2 B,,2 E,2 | A,,8 |] %16

